X:69
T:Solus Lillis' Reel
R:reel
H:Also played in C, see #775
D:Ashplant. Played in F on the recording.
Z:id:hn-reel-69
M:C|
K:G
G2DG EGDE | G2BG dGBG | G2DG EGDE | Beed BA~A2 :|
|: BA~A2 BAGA | BA~A2 Beed | BA~A2 BAGE |1 ~G3A Beed :|2 ~G3A BedB ||
P:variations
|: G2FG EGDE | G2BG dGBG | G2FG EGD2 | Beed BA~A2 :|
|: BA~A2 BAGA | BA~A2 Beed | BA~A2 BAGE |1 GFGA Beed :|2 G2GA BedB ||

